X:1
T:Title
%%score { ( 1 4 ) | ( 2 3 ) }
L:1/8
M:4/4
K:F
V:1 treble nm="Grand Piano"
V:4 treble 
V:2 bass 
V:3 bass 
V:1
 z4 z2[Q:1/4=100] FG | A2 A>A A2 GF | G F3 z2 FA | c2 c>c dc[CFA]F |[M:3/4] [CEG]6 | %5
[M:1/4] [CFA][CGB] |[M:4/4] [CAc]2 c2 cAGF | d d3 z2 [Fd]2 | [Fc]2 [CF]>[DFG] [CFA]2 [CFA]>[B,EG] | %9
[M:3/4] [F,A,F]6 |[M:1/4] AB |[M:4/4] c6 z2 | G6 z2 | B6 z2 | A6 z2 | c6 z2 | d6 z2 | %17
 cdcB A2 [EG]2 |[M:3/4] F6 |] %19
V:2
 z4 z2 [F,A,][F,B,F] | [F,CF]2 [F,CF]>[F,CF] [F,CF]2 B,A, | [F,B,C] [F,A,C]3 z2 [F,A,][F,CF] | %3
 [F,A,F]2 [F,A,F]>[F,A,F] [F,F]-[F,A,F] z A, |[M:3/4] C,6 |[M:1/4] F,F, | %6
[M:4/4] z4[K:treble] .A,2 .[G,F]2 | [B,F] [B,F]3 z2[K:bass] [B,,B,]2 | [F,A,]2 A,,>B,, C,2 C,>C, | %9
[M:3/4] F,,6 |[M:1/4][K:treble] FG |[M:4/4] A6[K:bass][K:treble] z2 | E6[K:bass][K:treble] z2 | %13
 G6[K:bass][K:treble] z2 | F6[K:bass][K:treble] z2 | A6[K:bass][K:treble] z2 | %16
 F6[K:bass] [B,,DF]2 | [F,A,F][K:treble][F,B,F][A,CF][B,DG] [CF]2[K:bass] [C,B,]2 | %18
[M:3/4] [F,A,]6 |] %19
V:3
 x8 | z4 z2 [C,C]2 | x8 | z4 .B,2 F,2 |[M:3/4] x6 |[M:1/4] x2 | %6
[M:4/4] F,2[K:treble] [F,A,F]2 [F,F]-[F,CF]C-[A,C] | x6[K:bass] x2 | x8 |[M:3/4] x6 | %10
[M:1/4][K:treble] x2 |[M:4/4] z2[K:bass] F,2 F,2[K:treble] .F2 | z2[K:bass] C,2 C,2[K:treble] EF | %13
 z2[K:bass] C,C, C,2[K:treble] FE | z2[K:bass] F,2 F,2[K:treble] FG | %15
 z2[K:bass] F,2 F,2[K:treble] AG | x6[K:bass] x2 | x[K:treble] x5[K:bass] x2 |[M:3/4] x6 |] %19
V:4
 x8 | x8 | x8 | x8 |[M:3/4] x6 |[M:1/4] x2 |[M:4/4] x8 | x8 | x8 |[M:3/4] x6 |[M:1/4] x2 | %11
[M:4/4] z2 C2 C2 AF | z2 C2 C2 GA | z2 CC C2 AG | z2 C2 C2 AB | z2 C2 C2 fe | z2 B,B, B,2 f2 | x8 | %18
[M:3/4] x6 |] %19

